X: 34101
T: Reel Des Skieurs
R: reel
M: 4/4
K: Gmajor
AB/c/|:d2fd B2dB|G2BG D2DF|A2AB cBcA|GFGA BABc|
d2fd B2dB|G2BG D2DF|A2AB cAFA|1 G2B2 G2AB/c/:|2 G2B2 G2GB||
K:C
|:c2Gc e2ce|g6 gf|eceg fedc|BGAB cBAG|
c2Gc e2ce|g6 gf|eceg fedc|1 BGAB c2GB:|2 BGAB c4||

